X: 1085
T: Amber, The
R: mazurka
M: 3/4
K: Dmajor
|:A,D|F2.F2 EF|G2.G2 GA|BA BA GE|F2.F2 A,D|
F2.F2 EF|G2.G2 GA|BA GF EF|D4:|
|:A2|dc df ed|BD GB dB|AD FA dA|G2 FG E2|
dc df ed|BD GB dB|AF DF EF|D4:|

